X:1
T:Title
%%score { ( 1 3 ) | ( 2 4 ) }
L:1/8
Q:1/4=100
M:4/4
K:A
V:1 treble nm="Grand Piano"
V:3 treble 
V:2 bass 
V:4 bass 
V:1
 [CEA]2 [Ec]2 B2 (3EEE | B2 d2 c2 (3EEE | c2 c2 e2 cd | e2 dc B2 z2 | BB B2 c2 [EA][FB] | %5
w: Pemberton~Pierce * * * * *|||||
 c2 c>B [A,CA]4 | [A,CF]2 [CFA]2 [C^EG]2 z2 | [C^EG]2 [CGB]2 [CFA]2 (3CCC | A2 A2 c2 AB | %9
w: ||||
 c2 BA [^EG]2 z2 | [^EG][EG] [EG]2 [FA]2 [FA][FB] | [Ec]3 [EA] [Ge]2 [DEG][DEG] |[M:3/4] [CEA]6 | %13
w: ||||
[M:1/4] A2 |[M:4/4] [DF]2 [DF]2 [DF]2 [DF][FA] | [FA]2 [E=G]2 [EG]4 | c4 z4 | [Fd]3 [FA] [FA]2 z2 | %18
w: |||||
 [=GB]4 [Bd]2 [GB]2 | [FA]4 [DF]2 [FA]2 | [FA]2 [E=G]2 [CE]2 [EG]2 | [=GB]3 [FA] [FA]2 z2 | %22
w: ||||
 [=GB]4 [Bd]2 [GB]2 | [FA]4 [FA]2 [Fd]2 | [Ec]2 c>d [Ec]2 [DB]2 |[M:3/4] [CA]6 |[M:1/4] A2 | %27
w: |||||
[M:4/4] [DF]2 [DF]2 [DF]2 [DF][FA] | [FA]2 [E=G]2 [EG]4 | c4 z4 | [Fd]3 [FA] [FA]2 z2 | %31
w: ||||
 [=GB]4 [Bd]2 [GB]2 | [FA]4 [DF]2 [FA]2 | [FA]2 [E=G]2 [CE]2 [EG]2 | [=GB]3 [FA] [FA]2 z2 | %35
w: ||||
 [=GB]4 [Bd]2 [GB]2 | [FA]4 [FA]2 [Fd]2 | [Ec]2 c>d [Ec]2 [DB]2 | [CA]6 z2 | z4 c2 z2 | %40
w: |||||
 [Fd]4 [FA]2 [FA]2 | z4 .d2 .B2 | [Fd]4 [FA]2 z2 | [=GB]2 c2 d2 B2 | A2 F2 A2 d2 | [Ec]4 [=Ge]4 | %46
w: ||||||
 [Fd]6 z2 | [DFB]2 z2 z4 | [CF^A]2 z2 z4 | [DFB]2 [DFd]>[DFd] [E=Gc]2 [D^GB]2 | [CF^A]4 F2 F2 | %51
w: |||||
[M:19/16] [Fd]/-[Fd]/-[Fd]/-[Fd]/-[Fd]/-[Fd]-<[Fd][Fc][FB]-<[FB][B,B]-<[B,B] | %52
w: |
 [=G=g]/-[Gg]/-[Gg]/-[Gg]/-[Gg]/-[Gg]-<[Gg][Gf][Ge]-<[Ge]G-[Gc] |[M:4/4] d4 c4 | %54
w: ||
 [DB]>[DB] [DB]2 z2 [DF]2 | A3 =G G2 G2 | F4 F4 | B,>B, B,2 z4 |[M:6/4] [B,DEG]12 | %59
w: |||||
[M:3/4] [CA]4 [Ec]B | .[CA]2 .[A,CE]2 z2 | [Ac]4 z2 | .[EAc]2 [CA]2 A2 | .[Af]2 .e2 A2 | %64
w: |||||
 .[Af]2 .e2 A>A | [EBd]4 [EAc]2 | .[EAc]2 .[EGB]2 z2 | [FA^d]4 [FAd]2 | [EGe]2 [EGB]2 [B,EG]2 | %69
w: |||||
 E4 z2 | E2 z2 E2 | z2 F2 [B,EG]2 | [A,EA]>[EB] [Ec]2 [A,A]2 | f2 d2 [DFB]2 | e2 c2 [CEA]2 | %75
w: ||||||
 [Ec]4 B2 | A6 |[M:1/4] E>E |[M:3/4] A2 A2 E>A | c2 c2 A>c | e2 e2 [GB]2 | c2 z2 A>c | %82
w: |||||||
 e2 e2 [GB]2 | [Ac]2 z2 z2 | [Af]4 [Af]2 | [Ae]2 [Ae]2 z2 | [Ae]6 | [EG]6 | [CEA]6- | %89
w: |||||||
[M:9/8] [CEA]8- [CEA] |] %90
w: |
V:2
 A,,2 [A,,A,]2 [E,G,E]2 z2 | [E,G,E]2 [G,B,E]2 [A,E]2 z2 | [A,E]2 [A,E]2 [A,CE]2 [A,E][G,B,E] | %3
 [A,CE]2 [G,B,E][A,E] [E,G,E]2 z2 | [E,G,E][E,G,E] [E,G,E]2 [A,E]2 [C,A,][D,A,] | %5
 [E,A,E]2 [E,G,E]>[E,G,D] A,,4 | F,2 F,2 C,2 (3CCC | C,2 ^E,2 F,2 z2 | %8
 [F,CF]2 [F,CF]2 [A,CF]2 [F,CF][G,CF] | [A,CF]2 [G,C^E][K:bass][F,CF] [C,C]2 z2 | %10
 [C,C][C,C] [C,C]2 [F,C]2 [D,D][D,A,] | [E,A,]3 [E,C] [E,B,]2 E,E, |[M:3/4] A,,6 |[M:1/4] F2 | %14
[M:4/4] D,A,F,A, D,A,F,A, | A,,A,A,A, A,,A,A,A, | z2 z A,[K:treble][K:bass] z4 | %17
 D,A,F,A, D,A,F,A, | =G,[K:treble]DB,D G,D[K:bass]B,D | D,A,F,A, D,A,F,A, | A,,C,E,A, A,,C,E,A, | %21
 D,A,F,A, D,F,A,[K:treble]D | =G,DB,D[K:bass] G,DB,D | D,A,F,A, D,A,F,A, | %24
 z2[K:treble] E>F[K:bass] E,,4 |[M:3/4] [A,,E,]6 |[M:1/4] F2 |[M:4/4] D,A,F,A, D,A,F,A, | %28
 A,,A,A,A, A,,A,A,A, | z2 z A,[K:treble][K:bass] z4 | D,A,F,A, D,A,F,A, | %31
 =G,[K:treble]DB,D G,D[K:bass]B,D | D,A,F,A, D,A,F,A, | A,,C,E,A, A,,C,E,A, | %34
 D,A,F,A, D,F,A,[K:treble]D | =G,DB,D[K:bass] G,DB,D | D,A,F,A, D,A,F,A, | %37
 z2[K:treble] E>F[K:bass] E,,4 | [A,,E,]6 z2 | A,,C,E,A, A,,C,E,A, | D,F,A,D D,F,A,D | %41
 A,,C,E,A, A,,C,E,A, | D,F,A,D D,F,A,[K:treble]D | z2 A2 B2 =G2 | F2 D2 F2 F2 | [A,,A,]8 | %46
 [D,A,]6 z2 | B,2 f2 d2 B2 | F,2 f2 c2 A2 | B,2 B,,>B,, E,2 ^E,2 | F,4 F,2 F,2 | %51
[M:19/16] [B,,B,]/-[B,,B,]/-[B,,B,]/-[B,,B,]/-[B,,B,]/-[B,,B,]-<[B,,B,][C,^A,][D,B,]-<[D,B,] z/ z/ z | %52
 [E,B,]/-[E,B,]/-[E,B,]/-[E,B,]/-[E,B,]/-[E,B,]-<[E,B,][E,B,][E,B,]-<[E,B,][E,B,]-<[E,B,] | %53
[M:4/4] [F,B,F]4 [F,^A,E]4 | [B,,B,]>[B,,B,] [B,,B,]2 z2 [B,,B,]2 | %55
 [E,B,E]3 [E,B,E] [E,B,E]2 [E,B,E]2 | [F,B,D]4 [F,^A,C]4 | B,,>B,, B,,2 z4 |[M:6/4] [E,,E,]12 | %59
[M:3/4] z2 z2 [E,G,]2 | A,2 .A,,2[K:treble] AB | A,4 z d | A,2 A,2 A,2 | %63
 .[D,D]2[K:treble] .[A,CA]2 A,2 | .[D,D]2 .[A,CA]2 A,>[K:bass]A, | G,4 A,2 | .E,2 .E,2 z2 | %67
 B,4 B,2 | E,2 E,2 E,2 | B,,6 | [E,G,]2 z2 [E,G,]2 | G,2 z2 z2 | C,>[B,,G,] [A,,A,]2 z2 | %73
 A,2 z2 z2 | [CE]2 z2 z2 | z2 z2 D2 | [A,C]6 |[M:1/4] E,>E, |[M:3/4] A,2 A,2 E,>A, | C2 C2 A,>C | %80
 [E,E]2 [E,E]2 [E,E]2 | [A,EA]2 z2[K:bass] A,>C | [E,E]2 [E,E]2 [E,E]2 | [A,E]2 z2 z2 | %84
 [D,D]4 [D,D]2 | [E,C]2 [E,C]2 z2 | B,6 | D6 | A,,6- |[M:9/8] A,,8- A,, |] %90
V:3
 x8 | x8 | x8 | x8 | x8 | x8 | x8 | x8 | x8 | x8 | x8 | x8 |[M:3/4] x6 |[M:1/4] x2 |[M:4/4] x8 | %15
 x8 | =G3- [G-d] [GB]2 [Gc]2 | x8 | x8 | x8 | x8 | x8 | x8 | x8 | x8 |[M:3/4] x6 |[M:1/4] x2 | %27
[M:4/4] x8 | x8 | =G3- [G-d] [GB]2 [Gc]2 | x8 | x8 | x8 | x8 | x8 | x8 | x8 | x8 | x8 | %39
 [=Ge]4 G2- [GA]2 | x8 | [=Ge]4 G-[Gc]G-[GA] | x8 | x8 | x8 | x8 | x8 | x8 | x8 | x8 | x8 | %51
[M:19/16] x19/2 | z/ z/ z/ z/ z/ z/ z/ z/ z/ z/ z/ z/ z/ z B z |[M:4/4] x8 | x8 | x8 | x8 | x8 | %58
[M:6/4] x12 |[M:3/4] x6 | x6 | E4- [EBe]2 | x6 | x6 | x6 | x6 | x6 | x6 | x6 | [A,F]4- [A,^DF]2 | %70
 x6 | E4 z2 | x6 | F4 z2 | x6 | G6 | x6 |[M:1/4] x2 |[M:3/4] x6 | x6 | x6 | x6 | x6 | x6 | x6 | %85
 x6 | x6 | x6 | x6 |[M:9/8] x9 |] %90
V:4
 x8 | x8 | x8 | x8 | x8 | x8 | x8 | x8 | x8 | x3[K:bass] x5 | x8 | x8 |[M:3/4] x6 |[M:1/4] x2 | %14
[M:4/4] x8 | x8 | A,,A, .A,>[K:treble]c[K:bass] A,,A,A,A, | x8 | x[K:treble] x5[K:bass] x2 | x8 | %20
 x8 | x7[K:treble] x | x4[K:bass] x4 | x8 | E,8[K:treble][K:bass] |[M:3/4] x6 |[M:1/4] x2 | %27
[M:4/4] x8 | x8 | A,,A, .A,>[K:treble]c[K:bass] A,,A,A,A, | x8 | x[K:treble] x5[K:bass] x2 | x8 | %33
 x8 | x7[K:treble] x | x4[K:bass] x4 | x8 | E,8[K:treble][K:bass] | x8 | x8 | x8 | x8 | %42
 x7[K:treble] x | =G,8 | A,8 | x8 | x8 | x8 | x8 | x8 | x8 |[M:19/16] x19/2 | x19/2 |[M:4/4] x8 | %54
 x8 | x8 | x8 | x8 |[M:6/4] x12 |[M:3/4] [A,,E,]4 z D | x4[K:treble] x2 | z2 z2 G,2 | x6 | %63
 x2[K:treble] x4 | x11/2[K:bass] x/ | x6 | x6 | x6 | x6 | x6 | x6 | E,2- [E,A,]2 ^D,2 | x6 | %73
 D,2- [D,B,]2 D,2 | E,2- [E,A,]2 E,2 | E,6 | x6 |[M:1/4] x2 |[M:3/4] x6 | x6 | x6 | x4[K:bass] x2 | %82
 x6 | x6 | x6 | x6 | E,6- | E,6 | x6 |[M:9/8] x9 |] %90

